!!!COM: Macque, Giovanni de
!!!CDT:
!!!PTL: Il secondo libro de madrigali a sei voci
!!!PPP: Venice
!!!PPR: Angelo Gardano
!!!PDT: 1589
!!!PUB-format:
!!!RISM: M 90
!!!rime: 288
!!!OTL:	Amatemi, ben mio
!!!AGN: Madrigal
!!!SCT: Trm0288e
!!!SCA: Trm0288e
!!!original-voices: 6
!!!extant-voices: 1
!!!complete: N
!!!final: D?
**kern	**text
*part1	*part1
*staff1	*staff1
*I"Quinto	*
*I'V	*
*oclefC4	*
*clefGv2	*
*k[]	*
*omet(C)	*
*M4/2	*
=1	=1
2A	A-
4.B	-ma-
8B	-te-
4c#X	-mi,
4c#i	ben
2d	mi-
=2	=2
2A	-o,
2r	.
1r	.
=3	=3
4r	.
4c	<A-
4.d	-ma-
8d	-te-
4e	-mi,
4f	ben
2e	mi-
=4	=4
2d	-o,>
2r	.
4r	.
4A	A-
4.B	-ma-
8B	-te-
=5	=5
4c#X	-mi,
4c#i	ben
2d	mi-
2cnXi	-o,
4r	.
4e	Per-
=6	=6
2e	-ché
2.B	sde-
8A	-gn'il
8G	mio
[2c	co-
=7	=7
2c]	.
2B	.
1c	-re
=8	=8
0r	.
=9	=9
1c	O-
2e	-gn'al-
2A	-tro
=10	=10
1d	ci-
2d	-bo
4r	.
4D	e
=11	=11
4.F	vi-
8G	-ve
4A	sol
4F	d'A-
2G	-mo-
2A	-re.
=12	=12
0r	.
=13	=13
2r	.
4.e	V'a-
8e	-me-
2c	-rò,
4.B	se
8c	m'a-
=14	=14
4d	-ma-
8cL	.
8BJ	.
4e	.
2d	.
4c#X	.
2d	-te,
=15	=15
0r	.
=16	=16
2r	.
4.d	V'a-
8d	-me-
2B	-rò,
4.A	se
8B	m'a-
=17	=17
4c	-ma-
8BL	.
8AJ	.
4d	.
2c	.
4B	.
[2c	-te,
=18	=18
2c]	.
2c	Né
1c	men
=19	=19
1r	.
4r	.
4e	de
4e	la
4B	mia
=20	=20
2d	vi-
2e	-ta
1r	.
=21	=21
0r	.
=22	=22
2r	.
4r	.
4d	L'a-
4c	-mor
4B	fia
4A	lun-
4G	-go e
=23	=23
4F	fia
4E	con
4D	lui
4C	fi-
4D	-ni-
4D	-ta,
4r	.
4d	e
=24	=24
8c	fia
8B	con
8A	lui
8c	fi-
4B	-ni-
4A	-ta,
4r	.
4D	e
8E	fia
8F	con
8G	lui
8D	fi-
=25	=25
4A	-ni-
4D	-ta.
2r	.
1r	.
=26	=26
2r	.
2.G	Ma
4G	s'a-
2E	-mar-
=27	=27
2A	-mi
2F	ne-
1c	-ga-
=28	=28
2A	-te
4r	.
8F	Mo-
8G	-ri-
1A	-rò,
=29	=29
4r	.
8A	Mo-
8B	-ri-
2c	-rò
4r	.
8c	di-
8B	-spe-
2A	-ra-
=30	=30
2E	-to
2r	.
1r	.
=31	=31
4r	.
4A	Per
2.D	non
4D	a-
2d	-mar-
=32	=32
2d	-vi
1G	non
2G	es-
=33	=33
4E	-sen-
4F	-do a-
2E	-ma-
2A	-to,
4r	.
[4E	non
=34	=34
4E]	.
4E	es-
2A	-sen-
1D	-do
=35	=35
4r	.
4E	a-
2E	-ma-
2D	-to,
4r	.
8A	Mo-
8B	-ri-
=36	=36
1c	-rò,
2r	.
4r	.
8c	Mo-
8d	-ri-
=37	=37
1e	-rò
1r	.
=38	=38
2r	.
2e	Per
4A	non
4A	a-
[2d	-mar-
=39	=39
2d]	.
2A	-vi
2r	.
[2B	non
=40	=40
2B]	.
2B	es-
4e	-sen-
4A	-do a-
2B	-ma-
=41	=41
2c#X	-to,
2r	.
2r	.
4r	.
[4A	non
=42	=42
4A]	.
4A	es-
4d	-sen-
4D	-do a-
1A	-ma-
=43	=43
0Al	-to.
==	==
*-	*-
!!!RDF**kern: i = editorial accidental
!!!RDF**kern: l = terminal long
!!!ENC: Emiliano Ricciardi
!!!END: 2017/11
!!!EED: Deutsch, Catherine
!!!EEV: 2018/07/09
!!!YEC: Copyright 2018 Emiliano Ricciardi, All Rights Reserved
!!!ONB: Translated from MusicXML on 2018/07/09 and edited by Craig Stuart Sapp
